X: 2
T: Martin Wynne's
R: reel
M: 4/4
L: 1/8
K: Dmaj
AF~F2 GE~E2|F2AF EFDB,|A,B,DE ~F3B|ABde fedB|AF~F2 GE~E2|F2AF EFDB,|A,B,DE ~F3B|1 ABde fddB:|2 ABde fdd2||f2af gfeg|fedf edBc|dBAF DEFB|ABde fe~e2|f2af gfeg|fedf edBc|dBAF D3B|1 ABde fdd2:|2 ABde fddB|


Tune 347	Setting 347

